X:75
T:Dunbarton Drums. RH.075
T:Dumbarton Drums,aka. RH.075
R:Scots Measure
S:Rev.R.Harrison’s MS,c1815,Cumbria
O:England
A:Temple Sowerby,Cumbria
Z:vmp.Simon Wilson. Review PJH, 2008.
M:C
L:1/8
Q:2/4=60
K:F
FG|A3c AcGA|F2c2 c2BA|\
GFGA BAGF|D2d4cd|!
f3g agfd|cAcd f2F2|\
GAfd cAG>F|D2d2d2:|!
|:cd|f3g fgag|f2a2a2gf|\
gfga bagf|d2gag2fd|!
cdfg agfd|cAcdf3g|\
agfd cAGF|D2d2d2:|

